dist/img/svg-icons/drag.svg

<?xml version="1.0" encoding="UTF-8" standalone="no"?>
<svg width="36px" height="36px" viewBox="0 0 36 36" version="1.1" xmlns="http://www.w3.org/2000/svg" xmlns:xlink="http://www.w3.org/1999/xlink">
    <!-- Generator: Sketch 3.6.1 (26313) - http://www.bohemiancoding.com/sketch -->
    <title>drag</title>
    <desc>Created with Sketch.</desc>
    <defs></defs>
    <g id="Page-1" stroke="none" stroke-width="1" fill="none" fill-rule="evenodd">
        <g id="drag">
            <path d="M0,0 L36,0 L36,36 L0,36 L0,0 Z" id="boundary"></path>
            <path d="M18.8333333,18.8333333 L25.5,18.8333333 L25.5,20.9758298 C25.5,22.0704921 26.0476472,22.4826788 26.7112725,21.9068283 L30.0002758,19.0528466 C30.6692431,18.4723606 30.663901,17.5265712 30.0002758,16.9507207 L26.7112725,14.096739 C26.0423052,13.516253 25.5,13.9253191 25.5,15.0277375 L25.5,17.1666667 L18.8333333,17.1666667 L18.8333333,10.5 L20.9722626,10.5 C22.0746809,10.5 22.483747,9.95769485 21.903261,9.2887275 L19.0492793,5.99972421 C18.4734288,5.33609899 17.5276394,5.33075689 16.9471534,5.99972421 L14.0931717,9.2887275 C13.5173212,9.95235276 13.9295079,10.5 15.0241702,10.5 L17.1666667,10.5 L17.1666667,17.1666667 L10.5,17.1666667 L10.5,15.0277375 C10.5,13.9253191 9.95769483,13.516253 9.28872752,14.096739 L5.99972421,16.9507207 C5.33609899,17.5265712 5.33075689,18.4723606 5.99972421,19.0528466 L9.28872752,21.9068283 C9.95235274,22.4826788 10.5,22.0704921 10.5,20.9758298 L10.5,18.8333333 L17.1666667,18.8333333 L17.1666667,25.5 L15.0241702,25.5 C13.9295079,25.5 13.5173212,26.0476472 14.0931717,26.7112725 L16.9471534,30.0002758 C17.5276394,30.6692431 18.4734288,30.663901 19.0492793,30.0002758 L21.903261,26.7112725 C22.483747,26.0423052 22.0746809,25.5 20.9722626,25.5 L18.8333333,25.5 L18.8333333,18.8333333 Z" fill="#26AAFE"></path>
        </g>
    </g>
</svg>

<svg width="36" height="36" viewBox="0 0 36 36" xmlns="http://www.w3.org/2000/svg"><title>drag</title><g fill="none" fill-rule="evenodd"><path d="M0 0h36v36H0V0z"/><path d="M18.833 18.833H25.5v2.143c0 1.094.548 1.507 1.211.93l3.29-2.853c.668-.58.663-1.526 0-2.102l-3.29-2.854c-.669-.58-1.211-.172-1.211.93v2.14h-6.667V10.5h2.14c1.102 0 1.51-.542.93-1.211l-2.854-3.29c-.576-.663-1.521-.668-2.102 0l-2.854 3.29c-.576.663-.163 1.211.931 1.211h2.143v6.667H10.5v-2.14c0-1.102-.542-1.51-1.211-.93l-3.29 2.854c-.663.576-.668 1.521 0 2.102l3.29 2.854c.663.576 1.211.163 1.211-.931v-2.143h6.667V25.5h-2.143c-1.094 0-1.507.548-.93 1.211l2.853 3.29c.58.668 1.526.663 2.102 0l2.854-3.29c.58-.669.172-1.211-.93-1.211h-2.14v-6.667z" fill="#26AAFE"/></g></svg>
